src/icons/constellation.svg

<svg width="64" height="64" viewBox="0 0 16 16" fill="none" xmlns="http://www.w3.org/2000/svg"> <path d="M10.72 1.5H9.26492V4.69769L10.72 4.70244V1.5Z" fill="#F6821F"/> <path d="M7.36006 3.34731L8.87631 4.86356L7.84405 5.88911L6.33116 4.37622L7.36006 3.34731Z" fill="#F6821F"/> <path d="M4.48493 6.27999H7.68696L7.68221 7.73508H4.48493V6.27999Z" fill="#F6821F"/> <path d="M6.33262 9.63935L7.84807 8.1239L8.87362 9.15616L7.36153 10.6683L6.33262 9.63935Z" fill="#F6821F"/> <path d="M9.26492 12.5151V9.31326L10.72 9.318V12.5151H9.26492Z" fill="#F6821F"/> <path d="M12.6247 10.6696L11.1078 9.15276L12.1401 8.1272L13.6536 9.64071L12.6247 10.6696Z" fill="#F6821F"/> <path d="M15.5 7.73508H12.2978L12.3025 6.27999H15.5V7.73508Z" fill="#F6821F"/> <path d="M13.6535 4.37617L12.1373 5.89241L11.1117 4.86015L12.6246 3.34726L13.6535 4.37617Z" fill="#F6821F"/> <path d="M1.99964 1.82855V2.64992H1.17827V3.96411H1.99964V4.78548H3.31384V3.96411H4.13521V2.64992H3.31384V1.82855H1.99964Z" fill="#F6821F"/> <path d="M1.99964 14.6714V13.1712H0.5V11.857H1.99964V10.358H3.31384V11.857H4.81348V13.1712H3.31384V14.6714H1.99964Z" fill="#F6821F"/> </svg>

<svg xmlns="http://www.w3.org/2000/svg" width="64" height="64" fill="none" viewBox="0 0 16 16"><path fill="#F6821F" d="M10.72 1.5H9.265v3.198l1.455.004zM7.36 3.347l1.516 1.517-1.032 1.025-1.513-1.513zM4.485 6.28h3.202l-.005 1.455H4.485zm1.848 3.36 1.515-1.516 1.026 1.032-1.512 1.512zm2.932 2.875V9.313l1.455.005v3.197zm3.36-1.845-1.517-1.517 1.032-1.026 1.514 1.514zM15.5 7.735h-3.202l.005-1.455H15.5zm-1.846-3.359-1.517 1.516-1.025-1.032 1.513-1.513zM2 1.829v.82h-.822v1.315H2v.821h1.314v-.82h.821V2.65h-.821v-.821zm0 12.842v-1.5H.5v-1.314H2v-1.499h1.314v1.499h1.5v1.314h-1.5v1.5z"/></svg>
